libs/ui/packages/crypto-icons/src/svg/WABI.svg

<svg width="24" height="24" viewBox="0 0 24 24" fill="none">
<path d="M16.4174 5.60059C16.3364 5.92609 16.3507 6.34309 16.4407 6.38059C16.5307 6.41884 16.7572 6.20359 16.8899 5.95909C17.0174 5.73409 17.1307 5.66734 17.2874 5.72509C17.4952 5.80609 17.4622 5.87809 17.0362 6.24634C16.6822 6.55309 16.6109 6.66334 16.7062 6.75859C16.7624 6.81634 16.8044 6.80659 17.0077 6.69634C17.2627 6.56284 17.4052 6.57184 17.4052 6.72559C17.4052 6.79684 17.3107 6.85459 16.9657 6.98809C16.7197 7.08409 16.4782 7.20859 16.4219 7.27084C16.3087 7.39534 16.1099 7.78834 15.8737 8.36734C15.6704 8.86984 15.4762 9.23884 15.3487 9.38209C15.2444 9.49684 14.8949 9.56959 14.1577 9.62659C13.8127 9.65509 13.7699 9.65059 13.7512 9.56884C13.6981 9.34598 13.6555 9.12073 13.6237 8.89384C13.6237 8.87959 13.7984 8.88409 14.0159 8.89909C14.4037 8.92759 14.7907 9.03259 14.9707 9.15709C15.1079 9.25309 15.1222 9.23884 15.1837 8.97034C15.2587 8.66434 15.4199 8.26234 15.6652 7.76434C15.8497 7.39534 15.8549 7.36684 15.8354 7.01734C15.8122 6.62959 15.7454 6.46234 15.5144 6.20809C15.4289 6.11809 15.3772 6.01684 15.3914 5.97859C15.4034 5.94919 15.413 5.91883 15.4199 5.88784C15.4199 5.87809 15.4619 5.86834 15.5099 5.86834C15.5662 5.86834 15.6652 5.95459 15.7552 6.08359C16.0057 6.43834 16.0814 6.37084 16.0814 5.78209C16.0814 5.51434 16.1002 5.39959 16.1617 5.33209C16.2562 5.22709 16.3319 5.22259 16.4122 5.31784C16.4594 5.37559 16.4594 5.43784 16.4174 5.60059ZM12.6592 7.60609C12.6922 7.96084 12.7582 8.08459 12.9712 8.16109C13.0559 8.19484 13.1737 8.24359 13.2307 8.26234C13.3679 8.31934 13.4062 8.52484 13.5524 9.86584C13.7084 11.3208 13.7414 11.5271 13.8884 11.9771C14.1104 12.6611 14.0909 13.4561 13.8314 14.2556C13.6987 14.6673 13.5524 14.8541 13.2502 15.0168C12.6449 15.3371 12.0202 15.1031 11.5342 14.3748C11.1727 13.8498 11.0392 13.1973 11.1652 12.5703C11.2364 12.2351 11.2739 11.7281 11.2402 11.6028C11.2267 11.5413 11.0752 11.3501 10.9049 11.1678C10.3754 10.6173 9.81744 9.63109 9.92694 9.45409C9.95994 9.40609 9.98319 9.25759 9.98319 9.12859C9.98319 8.86534 9.90819 8.75959 9.57669 8.57359C9.35919 8.44909 9.34494 8.32459 9.52494 7.97959C9.62394 7.77859 9.68094 7.73584 10.1774 7.48159C10.6829 7.22359 10.9102 7.15159 11.6617 7.01734C11.9737 6.95959 12.2002 6.96484 12.3704 7.03684C12.5692 7.12309 12.6254 7.23259 12.6592 7.60684V7.60609ZM8.18694 9.39184C8.18694 9.63559 8.26719 9.87559 8.32419 9.81334C8.34819 9.78934 8.39919 9.65509 8.44719 9.51634C8.52219 9.27634 8.66019 9.13384 8.75469 9.19534C8.83494 9.24784 8.80644 9.52534 8.70219 9.69784C8.56044 9.93259 8.56044 10.3781 8.70744 10.6751C8.85369 10.9623 9.15594 11.2781 9.28869 11.2781C9.36894 11.2728 9.46344 11.1581 9.72369 10.7133L10.0537 10.1531L10.1062 10.4883C10.1587 10.8663 10.1347 10.9811 9.92169 11.3501C9.68544 11.7663 9.42069 12.0918 9.32169 12.0918C9.20844 12.0918 8.95269 11.8383 8.73519 11.5128C8.65044 11.3778 8.41419 11.1198 8.21544 10.9331L7.85169 10.5933L7.62969 10.6316C7.49381 10.657 7.35612 10.6715 7.21794 10.6751C7.04769 10.6796 7.02894 10.6698 7.01544 10.5506C7.00044 10.4456 7.02444 10.4118 7.12344 10.3878C7.23123 10.3689 7.34134 10.3671 7.44969 10.3826C7.58169 10.4021 7.68144 10.3923 7.73319 10.3541C7.81344 10.2963 7.80894 10.2866 7.72869 10.1913C7.68144 10.1336 7.53969 10.0571 7.40694 10.0143C7.07694 9.90934 6.86319 9.76534 6.86319 9.65509C6.86319 9.51184 7.04319 9.47809 7.18944 9.59734C7.67694 10.0001 7.81344 10.0571 7.94169 9.92734C8.03169 9.83734 8.00769 9.66484 7.85619 9.36334C7.72419 9.09484 7.67619 8.84584 7.74744 8.77459C7.79469 8.72209 7.91769 8.73634 8.00244 8.80309C8.10219 8.88409 8.18694 9.14809 8.18694 9.39184ZM16.8329 13.7043C16.7152 13.8296 16.3747 14.2271 16.0769 14.5856C15.1972 15.6483 15.1079 15.7631 15.1454 15.8021C15.1829 15.8396 15.9299 15.5096 16.1002 15.3806C16.3132 15.2126 16.7002 14.8016 16.7714 14.6621C16.8044 14.6051 16.8517 14.4281 16.8854 14.2743C16.9417 13.9871 17.0977 13.7673 17.2394 13.7673C17.3339 13.7673 17.3767 13.8776 17.3392 14.0208C17.2747 14.1827 17.1957 14.3383 17.1029 14.4858C16.9844 14.6816 16.9042 14.8586 16.9132 14.8781C16.9604 14.9493 17.1359 14.9156 17.3392 14.7963C17.4569 14.7288 17.6272 14.5526 17.7547 14.3703C18.0052 14.0163 18.1754 13.8633 18.3269 13.8633C18.4544 13.8633 18.6059 14.0261 18.5729 14.1213C18.5579 14.1596 18.3404 14.3463 18.0952 14.5338C17.6699 14.8541 17.5372 15.0213 17.6129 15.1458C17.6557 15.2178 18.0479 15.1218 18.4642 14.9358C19.1729 14.6148 19.3672 14.5953 19.4804 14.8106C19.5749 14.9883 19.3432 15.0978 18.4357 15.2988C18.1852 15.3566 17.9107 15.4473 17.8259 15.4998L17.6699 15.5958L17.7787 15.6866C17.8732 15.7638 17.9722 15.7781 18.4402 15.7781C18.8609 15.7781 19.0177 15.7968 19.0882 15.8493C19.1782 15.9213 19.1729 15.9266 19.0409 16.0458C18.9554 16.1178 18.8759 16.1561 18.8279 16.1366C18.6202 16.0503 17.9159 15.9213 17.6602 15.9213C17.2019 15.9213 17.1637 16.0893 17.5799 16.2513C17.7689 16.3286 17.8402 16.4148 17.8019 16.5153C17.7599 16.6301 17.6459 16.6106 17.2349 16.4193C16.4024 16.0316 16.2517 16.0121 15.2549 16.1418C14.7817 16.2041 14.6444 16.2093 14.5927 16.1606C14.4884 16.0743 14.5072 15.9933 14.6542 15.8643C14.7719 15.7638 15.6847 14.0643 15.6419 14.0261C15.6179 14.0021 14.6969 14.3321 14.0294 14.6096C13.9447 14.6433 13.9447 14.6388 14.0294 14.5046C14.3422 13.9923 15.2444 13.4171 16.2944 13.0586C16.8382 12.8718 16.8712 12.8673 17.0977 12.8718C17.2492 12.8816 17.2919 12.9011 17.3009 12.9768C17.3159 13.0968 17.1262 13.3938 16.8329 13.7043ZM5.99394 15.3956C6.16869 15.6446 6.57069 16.0661 6.63144 16.0661C6.69369 16.0661 6.64119 15.6491 6.52794 15.2133C6.42369 14.8158 6.41469 14.6246 6.49494 14.5436C6.55644 14.4813 6.76494 14.4671 6.84969 14.5241C6.88269 14.5436 6.92019 14.8166 6.94869 15.2283C7.00119 15.9798 7.03869 16.1186 7.22244 16.2378C7.34094 16.3196 7.34994 16.3196 7.40694 16.2431C7.43544 16.1996 7.46844 16.0226 7.47369 15.8456C7.48719 15.3716 7.60119 15.1608 7.80369 15.2283C7.96044 15.2756 7.97469 15.4721 7.85619 15.8456C7.71894 16.2806 7.69569 16.5971 7.75719 17.0231C7.84719 17.6028 8.06469 18.1196 8.17269 18.0093C8.19669 17.9906 8.21019 17.3441 8.21544 16.5783C8.21994 15.3813 8.22969 15.1421 8.30094 14.9171C8.43294 14.5046 8.46144 14.4858 8.98119 14.4858C9.83694 14.4858 11.4254 14.7161 11.6377 14.8683C11.8649 15.0318 11.8177 15.0896 11.3684 15.2328C10.3897 15.5343 9.91269 15.5921 9.32169 15.4773C9.12819 15.4383 8.95269 15.4151 8.93394 15.4248C8.91519 15.4338 8.93394 15.5441 8.97144 15.6686C9.08994 16.0563 9.05694 16.2956 8.77794 17.1476C8.63169 17.5833 8.49444 18.0911 8.47569 18.2726C8.45694 18.4548 8.40444 18.6363 8.37594 18.6746C8.25294 18.8231 8.11644 18.7563 7.89369 18.4451C7.61544 18.0626 7.17519 17.6411 6.92019 17.5068C6.81144 17.4491 6.45219 17.3441 6.12594 17.2668C5.54019 17.1333 5.35119 17.0418 5.42169 16.9278C5.44569 16.8843 5.54919 16.8798 5.77644 16.8986C6.19194 16.9421 6.22569 16.8843 5.94669 16.6211C5.64246 16.351 5.29382 16.1356 4.91619 15.9843C4.56144 15.8411 4.49994 15.7931 4.49994 15.6783C4.49994 15.5868 4.63194 15.4908 4.76019 15.4908C4.80219 15.4908 4.99194 15.6206 5.17569 15.7833C5.56344 16.1133 5.83269 16.2716 5.97969 16.2483C6.24969 16.2093 5.92719 15.5823 5.42169 15.1608C5.23719 15.0078 5.05794 14.8211 5.01969 14.7491C4.95819 14.6291 4.95819 14.6156 5.04369 14.5533C5.12213 14.5077 5.2128 14.4875 5.30319 14.4956C5.45019 14.5106 5.48319 14.5391 5.65794 14.8451C5.76219 15.0318 5.91294 15.2801 5.99394 15.3956ZM12.7724 7.17559C13.0139 7.13809 13.0649 7.33384 13.0649 7.32934C13.1932 7.65934 13.1174 8.07184 13.1174 8.07184C12.9472 8.03809 12.8197 7.82734 12.8197 7.82734C12.7207 7.59259 12.7724 7.17634 12.7724 7.17634V7.17559ZM9.36444 8.54059C9.36444 8.54059 9.72819 8.74159 9.86544 8.95684C9.86544 8.95684 9.95994 9.18184 9.88869 9.34459C9.88869 9.34459 9.51069 9.16759 9.32169 8.87059C9.32169 8.87584 9.19869 8.71759 9.36444 8.54059Z" fill="#399B32"/>
</svg>

<svg width="24" height="24" viewBox="0 0 24 24" fill="none"><path fill="#399b32" d="M16.417 5.6c-.08.326-.066.743.024.78.09.039.316-.176.449-.42.127-.226.24-.293.397-.235.208.081.175.153-.25.521-.355.307-.426.417-.33.513.055.057.097.048.3-.063.256-.133.398-.124.398.03 0 .07-.094.129-.44.262-.245.096-.487.22-.543.283-.113.124-.312.517-.548 1.096-.204.503-.398.872-.525 1.015-.105.115-.454.188-1.191.245-.345.028-.388.024-.407-.058a7 7 0 0 1-.127-.675c0-.014.174-.01.392.005.388.029.775.134.955.258.137.096.151.082.213-.187q.113-.459.481-1.206c.185-.369.19-.397.17-.747-.023-.387-.09-.555-.32-.809-.086-.09-.138-.191-.124-.23a1 1 0 0 0 .029-.09c0-.01.042-.02.09-.02.056 0 .155.087.245.216.25.354.326.287.326-.302 0-.268.02-.382.08-.45.095-.105.17-.11.251-.014.047.058.047.12.005.283M12.66 7.607c.033.355.1.479.312.555.085.034.203.083.26.101.137.057.175.263.321 1.604.156 1.455.19 1.661.336 2.111.222.684.203 1.48-.057 2.279-.132.411-.279.598-.58.76-.606.321-1.23.087-1.717-.641a2.36 2.36 0 0 1-.369-1.805c.071-.335.109-.842.075-.967-.013-.062-.165-.253-.335-.435-.53-.55-1.088-1.537-.978-1.714.033-.048.056-.196.056-.325 0-.264-.075-.37-.406-.555-.218-.125-.232-.25-.052-.594.099-.201.156-.244.652-.498.506-.258.733-.33 1.485-.465.312-.057.538-.052.708.02.2.086.255.196.29.57M8.187 9.392c0 .244.08.484.137.421.024-.024.075-.158.123-.297.075-.24.213-.382.308-.32.08.052.051.33-.053.502-.142.235-.142.68.005.977.147.287.449.603.582.603.08-.005.174-.12.435-.565l.33-.56.052.335c.053.378.029.493-.184.862-.237.416-.501.742-.6.742-.114 0-.37-.254-.587-.58-.085-.134-.32-.392-.52-.579l-.363-.34-.222.039a2.6 2.6 0 0 1-.412.043c-.17.005-.19-.005-.203-.124-.015-.105.01-.14.108-.163q.163-.029.327-.005c.132.02.231.01.283-.029.08-.058.076-.067-.004-.163-.048-.057-.19-.134-.322-.177-.33-.105-.544-.249-.544-.359 0-.143.18-.177.326-.058.488.403.624.46.753.33.09-.09.066-.262-.086-.564-.132-.268-.18-.517-.109-.588.048-.053.17-.039.255.028.1.081.185.345.185.589m8.646 4.312c-.118.126-.458.523-.756.882-.88 1.062-.97 1.177-.932 1.216s.785-.292.955-.421c.213-.168.6-.58.671-.719a2 2 0 0 0 .114-.388c.057-.287.213-.507.354-.507.095 0 .138.11.1.254a3 3 0 0 1-.236.465c-.119.196-.199.373-.19.392.047.071.223.038.426-.082.118-.067.288-.243.416-.426.25-.354.42-.507.572-.507.127 0 .279.163.246.258-.015.039-.233.225-.478.413-.425.32-.558.487-.482.612.043.072.435-.024.851-.21.709-.321.903-.34 1.016-.125.095.177-.137.287-1.044.488-.25.058-.525.148-.61.2l-.156.097.109.09c.094.078.193.092.661.092.42 0 .578.019.648.071.09.072.085.078-.047.197-.086.072-.165.11-.213.09-.208-.086-.912-.215-1.168-.215-.458 0-.496.168-.08.33.189.078.26.164.222.264-.042.115-.156.096-.567-.096-.833-.387-.983-.407-1.98-.277-.473.062-.61.067-.662.019-.105-.087-.086-.168.061-.297.118-.1 1.03-1.8.988-1.838-.024-.024-.945.306-1.613.584-.084.033-.084.029 0-.105.313-.513 1.215-1.088 2.265-1.446.544-.187.577-.192.804-.187.151.01.194.03.203.105.015.12-.175.417-.468.727m-10.84 1.692c.176.249.578.67.638.67.063 0 .01-.417-.103-.853-.104-.397-.113-.588-.033-.67.061-.062.27-.076.355-.019.033.02.07.293.099.704.052.752.09.89.273 1.01.119.082.128.082.185.005.028-.043.061-.22.067-.397.013-.474.127-.685.33-.618.156.048.17.244.052.618-.137.435-.16.751-.099 1.177.09.58.308 1.097.416.986.024-.018.037-.665.042-1.43.005-1.198.015-1.437.086-1.662.132-.412.16-.431.68-.431.856 0 2.444.23 2.657.382.227.164.18.222-.27.365-.978.301-1.455.36-2.046.244-.194-.039-.37-.062-.388-.052-.019.009 0 .12.037.244.119.387.086.627-.193 1.479-.146.435-.284.943-.302 1.125-.02.182-.072.363-.1.402-.123.148-.26.081-.482-.23-.279-.382-.719-.804-.974-.938-.109-.058-.468-.163-.794-.24-.586-.134-.775-.225-.704-.34.024-.043.127-.047.354-.028.416.043.45-.015.17-.278a3.5 3.5 0 0 0-1.03-.637c-.355-.143-.416-.19-.416-.306 0-.091.132-.187.26-.187.042 0 .232.13.416.292.387.33.657.489.804.465.27-.039-.053-.666-.558-1.087-.185-.153-.364-.34-.402-.412-.062-.12-.062-.133.024-.196a.44.44 0 0 1 .26-.057c.146.015.18.043.354.35.104.186.255.434.336.55m6.78-8.22c.24-.038.292.158.292.153.128.33.052.743.052.743-.17-.034-.297-.245-.297-.245-.1-.234-.048-.65-.048-.65zM9.363 8.54s.364.2.501.416c0 0 .095.225.024.388 0 0-.378-.177-.567-.474 0 .005-.123-.153.042-.33"/></svg>
